48x48/apps/becalm.svg

<svg xmlns="http://www.w3.org/2000/svg" width="48" height="48" version="1">
 <rect style="fill:#5838cf" width="40" height="40" x="4" y="4" rx="2" ry="2"/>
 <path style="fill:#1f8ce5" d="M 40 23 C 36 23 35 28 32 28 C 29 28 26 26 23 26 C 20 26 18 29 15 29 C 12 29 11 24 8 24 C 6.8308338 24 5.3623534 24.457526 4 25.013672 L 4 36 L 44 36 L 44 24.128906 C 42.775873 23.496492 41.393106 23 40 23 z"/>
 <path style="opacity:0.2;fill:#f4f4f7" d="M 40 23 C 36 23 35 28 32 28 C 29 28 26 26 23 26 C 20 26 18 29 15 29 C 12 29 11 24 8 24 C 6.8308338 24 5.3623534 24.457526 4 25.013672 L 4 26.013672 C 5.3623534 25.457526 6.8308338 25 8 25 C 11 25 12 30 15 30 C 18 30 20 27 23 27 C 26 27 29 29 32 29 C 35 29 36 24 40 24 C 41.393106 24 42.775873 24.496492 44 25.128906 L 44 24.128906 C 42.775873 23.496492 41.393106 23 40 23 z"/>
 <path style="fill:#61aeec" d="M 40 29 C 36 29 35 34 32 34 C 29 34 26 32 23 32 C 20 32 18 35 15 35 C 12 35 11 30 8 30 C 6.8308338 30 5.3623534 30.457526 4 31.013672 L 4 42 L 44 42 L 44 30.128906 C 42.775873 29.496492 41.393106 29 40 29 z"/>
 <path style="opacity:0.2;fill:#f4f4f7" d="M 40 29 C 36 29 35 34 32 34 C 29 34 26 32 23 32 C 20 32 18 35 15 35 C 12 35 11 30 8 30 C 6.8308338 30 5.3623534 30.457526 4 31.013672 L 4 32.013672 C 5.3623534 31.457526 6.8308338 31 8 31 C 11 31 12 36 15 36 C 18 36 20 33 23 33 C 26 33 29 35 32 35 C 35 35 36 30 40 30 C 41.393106 30 42.775873 30.496492 44 31.128906 L 44 30.128906 C 42.775873 29.496492 41.393106 29 40 29 z"/>
 <path style="fill:#d54b3e" d="m 17,32 h 24 c 0,1 -6.034653,8 -9,8 H 23.277228 C 17,40 17,35 17,32 Z"/>
 <rect style="fill:#d54b3e" width="1" height="16" x="33" y="16"/>
 <rect style="fill:#d54b3e" width="1" height="10" x="29" y="-33" transform="rotate(90)"/>
 <path style="opacity:0.2" d="m 29.793253,11 c 0,0 4.37902,6.849322 4.201491,20 H 25 c 2.817963,-5.995178 4.339936,-12.930133 4.793253,-20 z"/>
 <path style="fill:#fed7ea" d="m 29.793253,10 c 0,0 4.37902,6.849322 4.201491,20 H 25 c 2.817963,-5.995178 4.339936,-12.930133 4.793253,-20 z"/>
 <path fill="#fff" style="opacity:0.1" d="m6 4c-1.108 0-2 0.892-2 2v1c0-1.108 0.892-2 2-2h36c1.108 0 2 0.892 2 2v-1c0-1.108-0.892-2-2-2h-36z"/>
 <path opacity=".2" d="m6 45c-1.108 0-2-0.892-2-2v-1c0 1.108 0.892 2 2 2h36c1.108 0 2-0.892 2-2v1c0 1.108-0.892 2-2 2h-36z"/>
 <path style="fill:#a8d0f1" d="M 40 35 C 36 35 35 40 32 40 C 29 40 26 38 23 38 C 20 38 18 41 15 41 C 12 41 11 36 8 36 C 6.8308338 36 5.3623534 36.457526 4 37.013672 L 4 42 C 4 43.108 4.892 44 6 44 L 42 44 C 43.108 44 44 43.108 44 42 L 44 36.128906 C 42.775873 35.496492 41.393106 35 40 35 z"/>
 <circle style="opacity:0.2" cx="14" cy="15" r="5"/>
 <circle style="fill:#f4f4f7" cx="14" cy="14" r="5"/>
 <path style="opacity:0.2;fill:#f4f4f7" d="M 40 35 C 36 35 35 40 32 40 C 29 40 26 38 23 38 C 20 38 18 41 15 41 C 12 41 11 36 8 36 C 6.8308338 36 5.3623534 36.457526 4 37.013672 L 4 38.013672 C 5.3623534 37.457526 6.8308338 37 8 37 C 11 37 12 42 15 42 C 18 42 20 39 23 39 C 26 39 29 41 32 41 C 35 41 36 36 40 36 C 41.393106 36 42.775873 36.496492 44 37.128906 L 44 36.128906 C 42.775873 35.496492 41.393106 35 40 35 z"/>
</svg>

<svg xmlns="http://www.w3.org/2000/svg" width="48" height="48" version="1"><rect style="fill:#5838cf" width="40" height="40" x="4" y="4" rx="2" ry="2"/><path style="fill:#1f8ce5" d="M40 23c-4 0-5 5-8 5s-6-2-9-2-5 3-8 3-4-5-7-5c-1.17 0-2.638.458-4 1.014V36h40V24.129C42.776 23.496 41.393 23 40 23z"/><path style="opacity:.2;fill:#f4f4f7" d="M40 23c-4 0-5 5-8 5s-6-2-9-2-5 3-8 3-4-5-7-5c-1.17 0-2.638.458-4 1.014v1C5.362 25.458 6.83 25 8 25c3 0 4 5 7 5s5-3 8-3 6 2 9 2 4-5 8-5c1.393 0 2.776.496 4 1.129v-1C42.776 23.496 41.393 23 40 23z"/><path style="fill:#61aeec" d="M40 29c-4 0-5 5-8 5s-6-2-9-2-5 3-8 3-4-5-7-5c-1.17 0-2.638.458-4 1.014V42h40V30.129C42.776 29.496 41.393 29 40 29z"/><path style="opacity:.2;fill:#f4f4f7" d="M40 29c-4 0-5 5-8 5s-6-2-9-2-5 3-8 3-4-5-7-5c-1.17 0-2.638.458-4 1.014v1C5.362 31.458 6.83 31 8 31c3 0 4 5 7 5s5-3 8-3 6 2 9 2 4-5 8-5c1.393 0 2.776.496 4 1.129v-1C42.776 29.496 41.393 29 40 29z"/><path style="fill:#d54b3e" d="M17 32h24c0 1-6.035 8-9 8h-8.723C17 40 17 35 17 32zM33 16h1v16h-1z"/><path style="fill:#d54b3e" transform="rotate(90)" d="M29-33h1v10h-1z"/><path style="opacity:.2" d="M29.793 11s4.38 6.85 4.202 20H25c2.818-5.995 4.34-12.93 4.793-20z"/><path style="fill:#fed7ea" d="M29.793 10s4.38 6.85 4.202 20H25c2.818-5.995 4.34-12.93 4.793-20z"/><path fill="#fff" style="opacity:.1" d="M6 4c-1.108 0-2 .892-2 2v1c0-1.108.892-2 2-2h36c1.108 0 2 .892 2 2V6c0-1.108-.892-2-2-2H6z"/><path opacity=".2" d="M6 45c-1.108 0-2-.892-2-2v-1c0 1.108.892 2 2 2h36c1.108 0 2-.892 2-2v1c0 1.108-.892 2-2 2H6z"/><path style="fill:#a8d0f1" d="M40 35c-4 0-5 5-8 5s-6-2-9-2-5 3-8 3-4-5-7-5c-1.17 0-2.638.458-4 1.014V42c0 1.108.892 2 2 2h36c1.108 0 2-.892 2-2v-5.871C42.776 35.496 41.393 35 40 35z"/><circle style="opacity:.2" cx="14" cy="15" r="5"/><circle style="fill:#f4f4f7" cx="14" cy="14" r="5"/><path style="opacity:.2;fill:#f4f4f7" d="M40 35c-4 0-5 5-8 5s-6-2-9-2-5 3-8 3-4-5-7-5c-1.17 0-2.638.458-4 1.014v1C5.362 37.458 6.83 37 8 37c3 0 4 5 7 5s5-3 8-3 6 2 9 2 4-5 8-5c1.393 0 2.776.496 4 1.129v-1C42.776 35.496 41.393 35 40 35z"/></svg>
